assets/illustrations/default/accessibility-3.svg

<svg xmlns="http://www.w3.org/2000/svg" width="1080" height="1081" fill="none"><g clip-path="url(#a)"><path fill="#F5F5F5" d="M890 432.514c110.46 0 200-89.543 200-200s-89.54-200-200-200c-110.457 0-200 89.543-200 200s89.543 200 200 200"/><path fill="#C5D9FB" d="M376.5 956.514c204.622 0 370.5-165.879 370.5-370.5 0-204.622-165.878-370.5-370.5-370.5S6 381.392 6 586.014c0 204.621 165.878 370.5 370.5 370.5"/><path fill="#C5D9FB" d="M469.613 614.279h-10.877v415.911h10.877z"/><path fill="#C5D9FB" d="M672.135 816.797H256.219v10.876h415.916z"/><path fill="#C5D9FB" d="M607.097 671.426 313.002 965.521l7.691 7.69 294.094-294.094z"/><path fill="#C5D9FB" d="m320.693 671.427-7.691 7.691 294.094 294.094 7.691-7.691z"/><path fill="#072F73" d="M464.176 1051.95c-126.602 0-229.71-103.111-229.71-229.713s103.108-229.711 229.71-229.711c126.601 0 229.711 103.109 229.711 229.711S590.995 1051.95 464.176 1051.95m0-415.918c-102.674 0-186.204 83.532-186.204 186.205s83.53 186.203 186.204 186.203c102.673 0 186.206-83.529 186.206-186.203 0-102.673-83.533-186.205-186.206-186.205"/><path fill="#072F73" d="m597.03 722.635-65.891 290.625 21.214 4.81 65.891-290.626z"/><path fill="#C5D9FB" d="M1029.53 426.116c10.81 0 19.58-8.765 19.58-19.577s-8.77-19.578-19.58-19.578-19.58 8.765-19.58 19.578 8.77 19.577 19.58 19.577"/><path fill="#C5D9FB" d="M1029.53 386.745H926.205v39.373h103.325z"/><path fill="#0C4EC0" d="M692.145 387.833h305.411l-85.272 343.478H606.875z"/><path fill="#8C3A03" d="M592.081 259.708h163.801c6.091 0 10.876-4.786 10.876-10.877l.434-121.816c0-6.091-4.786-10.876-10.877-10.876H592.517c-6.091 0-10.877 4.785-10.877 10.876l-.435 121.816c0 6.091 4.785 10.877 10.876 10.877"/><path fill="#8C3A03" d="M614.052 125.491h63.084V50.009h-63.084c-6.091 0-10.876 4.785-10.876 10.876v53.729c0 6.091 5.003 10.877 10.876 10.877"/><path fill="#FCAA73" d="m650.814 21.731 110.94-1.305 8.484 8.483 2.392 208.828-82.006.87-.436-33.499-37.415.435c-3.263-3.263-5.222-5.004-8.485-8.484l-1.74-166.844z"/><path fill="#F06305" d="M657.774 159.208c-.652 0-1.304-.435-1.739-.87-.435-.653-.435-1.305-.217-1.958l18.271-43.071c.435-1.088 1.74-1.523 2.828-1.088s1.522 1.741 1.087 2.829l-16.967 39.807 17.186-.217c1.088 0 2.175.87 2.175 2.175s-.87 2.175-2.175 2.175z"/><path fill="#8C3A03" d="m750.007 114.179-71.568-78.31-35.457 50.466-.652-55.905 8.482-8.7 110.94-1.088 8.701 8.265.871 85.272z"/><path fill="url(#b)" d="M685.186 557.938H402.615c-40.461 0-73.308 32.847-73.308 73.307v.653l-53.511 316.07h146.613l42.418-250.811h188.817a73.9 73.9 0 0 0 31.758 7.178c40.461 0 73.308-32.847 73.308-73.308-.217-40.242-33.064-73.089-73.524-73.089"/><path fill="#0C4EC0" d="M912.285 731.31H564.458v-34.152H920.77z"/><path fill="url(#c)" d="M412.403 947.97H298.2c-1.522 6.961-23.274 29.366-50.248 31.106-51.337 3.48-30.673 28.064-30.673 28.064h188.163z"/><path fill="#072F73" d="M522.472 947.97H408.269c-1.523 6.961-23.274 29.366-50.465 31.106-51.337 3.48-30.673 28.064-30.673 28.064h188.163z"/><path fill="#0096FA" d="M387.387 947.968h146.615l51.772-316.07H439.158z"/><path fill="#0096FA" d="M512.467 704.553c40.486 0 73.308-32.821 73.308-73.308 0-40.486-32.822-73.307-73.308-73.307s-73.308 32.821-73.308 73.307 32.821 73.308 73.308 73.308M795.036 697.376c40.486 0 73.305-32.82 73.305-73.307 0-40.486-32.819-73.307-73.305-73.307s-73.308 32.821-73.308 73.307 32.821 73.307 73.308 73.307"/><path fill="#0096FA" d="M795.037 557.938H512.466v139.219h282.571z"/><path fill="#0096FA" d="m867.475 636.032 5.873-90.056H772.197z"/><path fill="#C5D9FB" d="M752.4 614.279h-10.877v415.911H752.4z"/><path fill="#C5D9FB" d="M954.922 816.797H539.006v10.876h415.916z"/><path fill="#C5D9FB" d="M889.861 671.376 595.767 965.47l7.69 7.69 294.094-294.094z"/><path fill="#C5D9FB" d="m603.453 671.332-7.691 7.69 294.094 294.094 7.69-7.691z"/><path fill="#072F73" d="M746.963 1051.95c-126.602 0-229.71-103.111-229.71-229.713s103.108-229.711 229.71-229.711 229.712 103.109 229.712 229.711-103.11 229.713-229.712 229.713m0-415.918c-102.674 0-186.204 83.532-186.204 186.205s83.53 186.203 186.204 186.203c102.673 0 186.206-83.529 186.206-186.203 0-102.673-83.533-186.205-186.206-186.205"/><path fill="#C5D9FB" d="M937.736 569.032H606.875v34.153h330.861z"/><path fill="url(#d)" d="M690.188 205.326h35.24l-35.024 19.796z"/><path fill="#8C3A03" d="M851.375 259.707h-84.618c-6.091 0-10.876-4.785-10.876-10.876V124.839c0-6.09 4.785-10.876 10.876-10.876h84.618c6.091 0 10.876 4.786 10.876 10.876v123.992c0 6.091-4.785 10.876-10.876 10.876"/><path fill="#8C3A03" d="M812.439 125.491H765.67c-6.091 0-10.877-4.786-10.877-10.877V60.885c0-6.09 4.786-10.876 10.877-10.876h46.769c6.09 0 10.876 4.785 10.876 10.876v53.729c0 6.091-5.003 10.877-10.876 10.877"/><path fill="#FCAA73" d="M736.956 157.031h37.848c4.786 0 8.485-3.915 8.485-8.483v-34.369h-46.333z"/><path fill="#8C3A03" d="m679.311 259.273-87.23.435c-6.091 0-10.876-4.785-10.876-10.876V216.42c0-6.09 4.785-10.876 10.876-10.876l98.107-.436v43.288c0 6.091-4.786 10.877-10.877 10.877"/><path fill="#0C4EC0" d="M576.637 1007.14H189v34.15h387.637z"/><path fill="#F06305" d="M930.087 361.149c-5.72-32.342-28.718-58.836-59.818-68.98l-106.766-35.206v-27.449h-84.006v27.449l-13.584 4.535-93.182 30.671c-31.1 10.263-54.098 36.758-59.818 68.98L478 556.514h487z"/><path fill="#FCAA73" d="M839.496 556.514H965l-15.732-90H824z"/><path fill="url(#e)" d="m809.7 395.514 29.3 161H699z"/><path fill="#072F73" d="M629.891 529.514H346.324c-5.831 0-10.234 5.214-9.163 10.777l1.785 8.922c.833 4.288 4.641 7.301 9.163 7.301h283.567c5.831 0 10.234-5.215 9.163-10.777l-1.785-8.923c-.833-4.287-4.641-7.3-9.163-7.3"/><path fill="#0C4EC0" d="M163.323 347.514H475.79c4.403 0 8.21 3.101 9.162 7.515l36.887 190.39c1.071 5.726-3.332 11.095-9.162 11.095H200.21c-4.403 0-8.21-3.102-9.162-7.516l-36.887-190.39c-1.071-5.726 3.332-11.094 9.162-11.094"/><path fill="#FCAA73" d="m921 556.514-79.5-61-175.5-53.5-32.5 57 253.5 118.5z"/><path fill="url(#f)" d="m824 473.514 3.462 19.043 93.244 63.957H965l-5.134-29.823z"/><path fill="#FCAA73" d="m745.5 469.691-126.84-44.177-60.383 19.087L522 471.732l10.382 10.204 23.031-9.964-25.417 24.729 13.603 9.244 56.564-36.254-35.561 40.696 10.74 7.923 42.96-28.451-26.253 29.051 9.307 7.683 42.244-27.491 53.9 27.412zM902.996 622.505c34.239 0 61.996-27.756 61.996-61.996 0-34.239-27.757-61.995-61.996-61.995S841 526.27 841 560.509c0 34.24 27.756 61.996 61.996 61.996"/><path fill="url(#g)" d="M224.36 93.514h264.783c6.248 0 11.36 5.111 11.36 11.359v19.424h19.424c9.314 0 14.085 11.359 7.383 17.948l-26.807 26.807v100.53c0 6.247-5.112 11.359-11.36 11.359H224.36c-6.248 0-11.36-5.112-11.36-11.359V104.873a11.32 11.32 0 0 1 11.36-11.36"/></g><defs><linearGradient id="b" x1="294.492" x2="691.204" y1="613.549" y2="893.492" gradientUnits="userSpaceOnUse"><stop offset=".026" stop-color="#0096FA"/><stop offset=".641" stop-color="#1968F0"/></linearGradient><linearGradient id="c" x1="262.039" x2="391.412" y1="926.626" y2="1051.56" gradientUnits="userSpaceOnUse"><stop offset=".26" stop-color="#072F73"/><stop offset=".366" stop-color="#072C6D"/><stop offset=".513" stop-color="#06255B"/><stop offset=".684" stop-color="#04193D"/><stop offset=".871" stop-color="#010915"/><stop offset=".956"/></linearGradient><linearGradient id="d" x1="707.971" x2="698.422" y1="215.264" y2="181.414" gradientUnits="userSpaceOnUse"><stop stop-color="#FCAA73"/><stop offset=".11" stop-color="#FBA66C"/><stop offset=".269" stop-color="#F99959"/><stop offset=".458" stop-color="#F68539"/><stop offset=".668" stop-color="#F1690E"/><stop offset=".706" stop-color="#F06305"/></linearGradient><linearGradient id="e" x1="731.083" x2="859.479" y1="455.391" y2="565.97" gradientUnits="userSpaceOnUse"><stop offset=".145" stop-color="#F06305"/><stop offset=".311" stop-color="#E15D05"/><stop offset=".631" stop-color="#B94C04"/><stop offset=".942" stop-color="#8C3A03"/></linearGradient><linearGradient id="f" x1="916.874" x2="859.514" y1="464.269" y2="593.549" gradientUnits="userSpaceOnUse"><stop offset=".281" stop-color="#F8BC9A" stop-opacity="0"/><stop offset=".297" stop-color="#F8B995" stop-opacity=".031"/><stop offset=".536" stop-color="#F48B48" stop-opacity=".5"/><stop offset=".706" stop-color="#F16E18" stop-opacity=".834"/><stop offset=".79" stop-color="#F06305"/></linearGradient><linearGradient id="g" x1="372" x2="456" y1="339.514" y2="39.514" gradientUnits="userSpaceOnUse"><stop offset=".264" stop-color="#F5F5F5"/><stop offset=".988" stop-color="#C5D9FB"/></linearGradient><clipPath id="a"><path fill="#fff" d="M0 .514h1080v1080H0z"/></clipPath></defs></svg>

<svg width="1080" height="1081" viewBox="0 0 1080 1081" fill="none" xmlns="http://www.w3.org/2000/svg">
<g clip-path="url(#clip0_18735_2411)">
<path d="M890 432.514C1000.46 432.514 1090 342.971 1090 232.514C1090 122.057 1000.46 32.5137 890 32.5137C779.543 32.5137 690 122.057 690 232.514C690 342.971 779.543 432.514 890 432.514Z" fill="#F5F5F5"/>
<path d="M376.5 956.514C581.122 956.514 747 790.635 747 586.014C747 381.392 581.122 215.514 376.5 215.514C171.878 215.514 6 381.392 6 586.014C6 790.635 171.878 956.514 376.5 956.514Z" fill="#C5D9FB"/>
<path d="M469.613 614.279H458.736V1030.19H469.613V614.279Z" fill="#C5D9FB"/>
<path d="M672.135 816.797H256.219V827.673H672.135V816.797Z" fill="#C5D9FB"/>
<path d="M607.097 671.426L313.002 965.521L320.693 973.211L614.787 679.117L607.097 671.426Z" fill="#C5D9FB"/>
<path d="M320.693 671.427L313.002 679.118L607.096 973.211L614.787 965.521L320.693 671.427Z" fill="#C5D9FB"/>
<path d="M464.176 1051.95C337.574 1051.95 234.466 948.839 234.466 822.237C234.466 695.635 337.574 592.526 464.176 592.526C590.777 592.526 693.887 695.635 693.887 822.237C693.887 948.839 590.995 1051.95 464.176 1051.95ZM464.176 636.032C361.502 636.032 277.972 719.564 277.972 822.237C277.972 924.911 361.502 1008.44 464.176 1008.44C566.849 1008.44 650.382 924.911 650.382 822.237C650.382 719.564 566.849 636.032 464.176 636.032Z" fill="#072F73"/>
<path d="M597.03 722.635L531.139 1013.26L552.353 1018.07L618.244 727.444L597.03 722.635Z" fill="#072F73"/>
<path d="M1029.53 426.116C1040.34 426.116 1049.11 417.351 1049.11 406.539C1049.11 395.726 1040.34 386.961 1029.53 386.961C1018.72 386.961 1009.95 395.726 1009.95 406.539C1009.95 417.351 1018.72 426.116 1029.53 426.116Z" fill="#C5D9FB"/>
<path d="M1029.53 386.745H926.205V426.118H1029.53V386.745Z" fill="#C5D9FB"/>
<path d="M692.145 387.833H997.556L912.284 731.311H606.875L692.145 387.833Z" fill="#0C4EC0"/>
<path d="M592.081 259.708H755.882C761.973 259.708 766.758 254.922 766.758 248.831L767.192 127.015C767.192 120.924 762.406 116.139 756.315 116.139H592.517C586.426 116.139 581.64 120.924 581.64 127.015L581.205 248.831C581.205 254.922 585.99 259.708 592.081 259.708Z" fill="#8C3A03"/>
<path d="M614.052 125.491H677.136V50.0088H614.052C607.961 50.0088 603.176 54.7944 603.176 60.8852V114.614C603.176 120.705 608.179 125.491 614.052 125.491Z" fill="#8C3A03"/>
<path d="M650.814 21.7312L761.754 20.4258L770.238 28.9092L772.63 237.737L690.624 238.607L690.188 205.108L652.773 205.543C649.51 202.28 647.551 200.539 644.288 197.059L642.548 30.2146L650.814 21.7312Z" fill="#FCAA73"/>
<path d="M657.774 159.208C657.122 159.208 656.47 158.773 656.035 158.338C655.6 157.685 655.6 157.033 655.818 156.38L674.089 113.309C674.524 112.221 675.829 111.786 676.917 112.221C678.004 112.656 678.439 113.962 678.004 115.05L661.037 154.857L678.223 154.64C679.311 154.64 680.398 155.51 680.398 156.815C680.398 158.12 679.528 158.99 678.223 158.99L657.774 159.208Z" fill="#F06305"/>
<path d="M750.007 114.179L678.439 35.8686L642.982 86.3347L642.33 30.4304L650.812 21.7292L761.752 20.6416L770.453 28.9073L771.324 114.179H750.007Z" fill="#8C3A03"/>
<path d="M685.186 557.938H402.615C362.154 557.938 329.307 590.785 329.307 631.245C329.307 631.463 329.307 631.681 329.307 631.898L275.796 947.968H422.409L464.827 697.157H653.644C663.215 701.725 674.091 704.335 685.403 704.335C725.863 704.335 758.71 671.488 758.71 631.027C758.493 590.785 725.646 557.938 685.186 557.938Z" fill="url(#paint0_linear_18735_2411)"/>
<path d="M912.285 731.31H564.458V697.158H920.77L912.285 731.31Z" fill="#0C4EC0"/>
<path d="M412.403 947.97H298.2C296.678 954.931 274.926 977.336 247.952 979.076C196.615 982.556 217.279 1007.14 217.279 1007.14H405.442L412.403 947.97Z" fill="url(#paint1_linear_18735_2411)"/>
<path d="M522.472 947.97H408.269C406.746 954.931 384.995 977.336 357.804 979.076C306.467 982.556 327.131 1007.14 327.131 1007.14H515.294L522.472 947.97Z" fill="#072F73"/>
<path d="M387.387 947.968H534.002L585.774 631.898H439.158L387.387 947.968Z" fill="#0096FA"/>
<path d="M512.467 704.553C552.953 704.553 585.775 671.732 585.775 631.245C585.775 590.759 552.953 557.938 512.467 557.938C471.98 557.938 439.159 590.759 439.159 631.245C439.159 671.732 471.98 704.553 512.467 704.553Z" fill="#0096FA"/>
<path d="M795.036 697.376C835.522 697.376 868.341 664.556 868.341 624.069C868.341 583.583 835.522 550.762 795.036 550.762C754.549 550.762 721.728 583.583 721.728 624.069C721.728 664.556 754.549 697.376 795.036 697.376Z" fill="#0096FA"/>
<path d="M795.037 557.938H512.466V697.157H795.037V557.938Z" fill="#0096FA"/>
<path d="M867.475 636.032L873.348 545.976H772.197L867.475 636.032Z" fill="#0096FA"/>
<path d="M752.4 614.279H741.523V1030.19H752.4V614.279Z" fill="#C5D9FB"/>
<path d="M954.922 816.797H539.006V827.673H954.922V816.797Z" fill="#C5D9FB"/>
<path d="M889.861 671.376L595.767 965.47L603.457 973.16L897.551 679.066L889.861 671.376Z" fill="#C5D9FB"/>
<path d="M603.453 671.332L595.762 679.022L889.856 973.116L897.546 965.425L603.453 671.332Z" fill="#C5D9FB"/>
<path d="M746.963 1051.95C620.361 1051.95 517.253 948.839 517.253 822.237C517.253 695.635 620.361 592.526 746.963 592.526C873.565 592.526 976.675 695.635 976.675 822.237C976.675 948.839 873.565 1051.95 746.963 1051.95ZM746.963 636.032C644.289 636.032 560.759 719.564 560.759 822.237C560.759 924.911 644.289 1008.44 746.963 1008.44C849.636 1008.44 933.169 924.911 933.169 822.237C933.169 719.564 849.636 636.032 746.963 636.032Z" fill="#072F73"/>
<path d="M937.736 569.032H606.875V603.185H937.736V569.032Z" fill="#C5D9FB"/>
<path d="M690.188 205.326H725.428L690.404 225.122L690.188 205.326Z" fill="url(#paint2_linear_18735_2411)"/>
<path d="M851.375 259.707H766.757C760.666 259.707 755.881 254.922 755.881 248.831V124.839C755.881 118.749 760.666 113.963 766.757 113.963H851.375C857.466 113.963 862.251 118.749 862.251 124.839V248.831C862.251 254.922 857.466 259.707 851.375 259.707Z" fill="#8C3A03"/>
<path d="M812.439 125.491H765.67C759.579 125.491 754.793 120.705 754.793 114.614V60.8852C754.793 54.7944 759.579 50.0088 765.67 50.0088H812.439C818.529 50.0088 823.315 54.7944 823.315 60.8852V114.614C823.315 120.705 818.312 125.491 812.439 125.491Z" fill="#8C3A03"/>
<path d="M736.956 157.031H774.804C779.59 157.031 783.289 153.116 783.289 148.548V114.179H736.956V157.031Z" fill="#FCAA73"/>
<path d="M679.311 259.273L592.081 259.708C585.99 259.708 581.205 254.923 581.205 248.832V216.42C581.205 210.33 585.99 205.544 592.081 205.544L690.188 205.108V248.396C690.188 254.487 685.402 259.273 679.311 259.273Z" fill="#8C3A03"/>
<path d="M576.637 1007.14H189V1041.29H576.637V1007.14Z" fill="#0C4EC0"/>
<path d="M930.087 361.149C924.367 328.807 901.369 302.313 870.269 292.169L763.503 256.963V229.514H679.497V256.963L665.913 261.498L572.731 292.169C541.631 302.432 518.633 328.927 512.913 361.149L478 556.514H679.616H763.742H965L930.087 361.149Z" fill="#F06305"/>
<path d="M839.496 556.514H965L949.268 466.514H824L839.496 556.514Z" fill="#FCAA73"/>
<path d="M809.7 395.514L839 556.514H699L809.7 395.514Z" fill="url(#paint3_linear_18735_2411)"/>
<path d="M629.891 529.514H346.324C340.493 529.514 336.09 534.728 337.161 540.291L338.946 549.213C339.779 553.501 343.587 556.514 348.109 556.514H631.676C637.507 556.514 641.91 551.299 640.839 545.737L639.054 536.814C638.221 532.527 634.413 529.514 629.891 529.514Z" fill="#072F73"/>
<path d="M163.323 347.514H475.79C480.193 347.514 484 350.615 484.952 355.029L521.839 545.419C522.91 551.145 518.507 556.514 512.677 556.514H200.21C195.807 556.514 192 553.412 191.048 548.998L154.161 358.608C153.09 352.882 157.493 347.514 163.323 347.514Z" fill="#0C4EC0"/>
<path d="M921 556.514L841.5 495.514L666 442.014L633.5 499.014L887 617.514L921 556.514Z" fill="#FCAA73"/>
<path d="M824 473.514L827.462 492.557L920.706 556.514H965L959.866 526.691L824 473.514Z" fill="url(#paint4_linear_18735_2411)"/>
<path d="M745.5 469.691L618.66 425.514L558.277 444.601L522 471.732L532.382 481.936L555.413 471.972L529.996 496.701L543.599 505.945L600.163 469.691L564.602 510.387L575.342 518.31L618.302 489.859L592.049 518.91L601.356 526.593L643.6 499.102L697.5 526.514L745.5 469.691Z" fill="#FCAA73"/>
<path d="M902.996 622.505C937.235 622.505 964.992 594.749 964.992 560.509C964.992 526.27 937.235 498.514 902.996 498.514C868.756 498.514 841 526.27 841 560.509C841 594.749 868.756 622.505 902.996 622.505Z" fill="#FCAA73"/>
<path d="M224.36 93.5137H489.143C495.391 93.5137 500.503 98.6253 500.503 104.873V124.297H519.927C529.241 124.297 534.012 135.656 527.31 142.245L500.503 169.052V269.582C500.503 275.829 495.391 280.941 489.143 280.941H224.36C218.112 280.941 213 275.829 213 269.582V104.873C213 98.6253 217.999 93.5137 224.36 93.5137Z" fill="url(#paint5_linear_18735_2411)"/>
</g>
<defs>
<linearGradient id="paint0_linear_18735_2411" x1="294.492" y1="613.549" x2="691.204" y2="893.492" gradientUnits="userSpaceOnUse">
<stop offset="0.0262009" stop-color="#0096FA"/>
<stop offset="0.641" stop-color="#1968F0"/>
</linearGradient>
<linearGradient id="paint1_linear_18735_2411" x1="262.039" y1="926.626" x2="391.412" y2="1051.56" gradientUnits="userSpaceOnUse">
<stop offset="0.2603" stop-color="#072F73"/>
<stop offset="0.3664" stop-color="#072C6D"/>
<stop offset="0.5132" stop-color="#06255B"/>
<stop offset="0.6836" stop-color="#04193D"/>
<stop offset="0.8706" stop-color="#010915"/>
<stop offset="0.9558"/>
</linearGradient>
<linearGradient id="paint2_linear_18735_2411" x1="707.971" y1="215.264" x2="698.422" y2="181.414" gradientUnits="userSpaceOnUse">
<stop stop-color="#FCAA73"/>
<stop offset="0.1097" stop-color="#FBA66C"/>
<stop offset="0.2687" stop-color="#F99959"/>
<stop offset="0.4576" stop-color="#F68539"/>
<stop offset="0.6679" stop-color="#F1690E"/>
<stop offset="0.7058" stop-color="#F06305"/>
</linearGradient>
<linearGradient id="paint3_linear_18735_2411" x1="731.083" y1="455.391" x2="859.479" y2="565.97" gradientUnits="userSpaceOnUse">
<stop offset="0.1453" stop-color="#F06305"/>
<stop offset="0.3114" stop-color="#E15D05"/>
<stop offset="0.6314" stop-color="#B94C04"/>
<stop offset="0.9417" stop-color="#8C3A03"/>
</linearGradient>
<linearGradient id="paint4_linear_18735_2411" x1="916.874" y1="464.269" x2="859.514" y2="593.549" gradientUnits="userSpaceOnUse">
<stop offset="0.2814" stop-color="#F8BC9A" stop-opacity="0"/>
<stop offset="0.297" stop-color="#F8B995" stop-opacity="0.030735"/>
<stop offset="0.5359" stop-color="#F48B48" stop-opacity="0.4999"/>
<stop offset="0.7062" stop-color="#F16E18" stop-opacity="0.8344"/>
<stop offset="0.7905" stop-color="#F06305"/>
</linearGradient>
<linearGradient id="paint5_linear_18735_2411" x1="372" y1="339.514" x2="456" y2="39.5137" gradientUnits="userSpaceOnUse">
<stop offset="0.263884" stop-color="#F5F5F5"/>
<stop offset="0.987855" stop-color="#C5D9FB"/>
</linearGradient>
<clipPath id="clip0_18735_2411">
<rect width="1080" height="1080" fill="white" transform="translate(0 0.513672)"/>
</clipPath>
</defs>
</svg>
